src/images/icons/footer-email.svg

<svg fill="none" height="17" viewBox="0 0 23 17" width="23" xmlns="http://www.w3.org/2000/svg"><g fill="#10182e"><path d="m23 15.4526v-14.27584l-7.931 7.13793z"/><path d="m11.5 11.5254-2.26416-2.03394-7.93103 7.13794h20.39039l-7.931-7.13794z"/><path d="m21.6952 0h-20.39039l10.19519 9.17186z"/><path d="m0 1.17676v14.27584l7.93103-7.13791z"/></g></svg>

<svg width="23" height="17" viewBox="0 0 23 17" fill="none" xmlns="http://www.w3.org/2000/svg">
<path d="M23 15.4526V1.17676L15.069 8.31469L23 15.4526Z" fill="#10182E"/>
<path d="M11.5 11.5254L9.23584 9.49146L1.30481 16.6294H21.6952L13.7642 9.49146L11.5 11.5254Z" fill="#10182E"/>
<path d="M21.6952 0H1.30481L11.5 9.17186L21.6952 0Z" fill="#10182E"/>
<path d="M0 1.17676V15.4526L7.93103 8.31469L0 1.17676Z" fill="#10182E"/>
</svg>
